X:13041
T:Peter Street
M:C
L:1/8
K:A Major
A2cA eAcA|eAaA gAfA|eAcA eAcA|BEcE dEBE|!
A2cA eAcA|eAaA gAfA|efec eaec|BABc A4:|!
E2GE BEGE|BEdE cEBE|A2cA eAcA|eAaA gAfA|!
efec agaf|efec agaf|efag fedc|BAGF EFGE:|!
